Adwaita++/actions/22/account-close.svg

<svg height="22" width="22" xmlns="http://www.w3.org/2000/svg">
  <g fill="#444">
    <path d="m6.5 3c-.831 0-1.5.669-1.5 1.5v.5h12v-.5c0-.831-.669-1.5-1.5-1.5zm-1.5 4v2h12v-2zm0 4v2h9 1.414062 1.585938v-2zm0 4v2h9.171875l-.878906-.878906a1.0001 1.0001 0 0 1 -.292969-.707032v-.414062z"/>
    <path d="m5 5v2h12v-2zm0 4v2h12v-2zm0 4v2h8v-1a1.0001 1.0001 0 0 1 1-1zm10.414062 0a1.0001 1.0001 0 0 1 .707032.292969l.878906.878906v-1.171875zm-10.414062 4v.5c0 .831.669 1.5 1.5 1.5h6.5v-.414062a1.0001 1.0001 0 0 1 .292969-.707032l.878906-.878906z" opacity=".3"/>
    <path d="m15 3v10h.414062a1.0001 1.0001 0 0 1 .707032.292969l.878906.878906v-1.171875-2-2-2-2-.5c0-.831-.669-1.5-1.5-1.5z" opacity=".3"/>
    <path d="m14 14v1.414062l1.585938 1.585938-1.585938 1.585938v1.414062h1.414062l1.585938-1.585938 1.585938 1.585938h1.414062v-1.414062l-1.585938-1.585938 1.585938-1.585938v-1.414062h-1.414062l-1.585938 1.585938-1.585938-1.585938z"/>
  </g>
  <path d="m12 14v1.414062l1.585938 1.585938-1.585938 1.585938v1.414062h1.414062l1.585938-1.585938 1.585938 1.585938h1.414062v-1.414062l-1.585938-1.585938 1.585938-1.585938v-1.414062h-1.414062l-1.585938 1.585938-1.585938-1.585938z" fill="none"/>
</svg>

<svg xmlns="http://www.w3.org/2000/svg" width="22" height="22" version="1.1">
 <defs>
  <style id="current-color-scheme" type="text/css">
   .ColorScheme-Text { color:#444444; } .ColorScheme-Highlight { color:#4285f4; }
  </style>
 </defs>
 <path style="fill:currentColor" class="ColorScheme-Text" d="M 6.5 3 C 5.669 3 5 3.669 5 4.5 L 5 5 L 17 5 L 17 4.5 C 17 3.669 16.331 3 15.5 3 L 6.5 3 z M 5 7 L 5 9 L 17 9 L 17 7 L 5 7 z M 5 11 L 5 13 L 14 13 L 15.414062 13 L 17 13 L 17 11 L 5 11 z M 5 15 L 5 17 L 14.171875 17 L 13.292969 16.121094 A 1.0001 1.0001 0 0 1 13 15.414062 L 13 15 L 5 15 z"/>
 <path style="opacity:0.3;fill:currentColor" class="ColorScheme-Text" d="M 5 5 L 5 7 L 17 7 L 17 5 L 5 5 z M 5 9 L 5 11 L 17 11 L 17 9 L 5 9 z M 5 13 L 5 15 L 13 15 L 13 14 A 1.0001 1.0001 0 0 1 14 13 L 5 13 z M 15.414062 13 A 1.0001 1.0001 0 0 1 16.121094 13.292969 L 17 14.171875 L 17 13 L 15.414062 13 z M 5 17 L 5 17.5 C 5 18.331 5.669 19 6.5 19 L 13 19 L 13 18.585938 A 1.0001 1.0001 0 0 1 13.292969 17.878906 L 14.171875 17 L 5 17 z"/>
 <path style="opacity:0.3;fill:currentColor" class="ColorScheme-Text" d="M 15 3 L 15 13 L 15.414062 13 A 1.0001 1.0001 0 0 1 16.121094 13.292969 L 17 14.171875 L 17 13 L 17 11 L 17 9 L 17 7 L 17 5 L 17 4.5 C 17 3.669 16.331 3 15.5 3 L 15 3 z"/>
 <path style="fill:currentColor" class="ColorScheme-Text" d="m 14,14 v 1.414062 L 15.585938,17 14,18.585938 V 20 h 1.414062 L 17,18.414062 18.585938,20 H 20 V 18.585938 L 18.414062,17 20,15.414062 V 14 H 18.585938 L 17,15.585938 15.414062,14 Z"/>
 <path style="fill:none" d="M 12 14 L 12 15.414062 L 13.585938 17 L 12 18.585938 L 12 20 L 13.414062 20 L 15 18.414062 L 16.585938 20 L 18 20 L 18 18.585938 L 16.414062 17 L 18 15.414062 L 18 14 L 16.585938 14 L 15 15.585938 L 13.414062 14 L 12 14 z"/>
</svg>
